X:228
T:Marche du qu\^eteux Pomerleau
Z:robin.beech@mcgill.ca
M:2/4
L:1/8
K:G
(3D/E/F/ |: GA FD | ED/C/ DE/F/ | GA GB | G/A/B/G/ D (3D/E/F/ | 
GA FD | ED/C/ D (3D/E/F/ | GA GB |1 G3 (3D/E/F/ :|2 G3 A/B/ |:
cc BB | BA/G/ F/G/A/B/ | A (3D/E/F/ GA | BA/G/ AA/B/ | 
cc BB | BA/G/ F/G/A/B/ | A (3D/E/F/ GB |1 G3A/B/ :|2 G/A/B/G/ D (3D/E/F/ |] 

